actions/16/go-top.svg

<?xml version="1.0" encoding="UTF-8" standalone="no"?>
<!-- Created with Inkscape (http://www.inkscape.org/) -->

<svg
   xmlns:dc="http://purl.org/dc/elements/1.1/"
   xmlns:cc="http://creativecommons.org/ns#"
   xmlns:rdf="http://www.w3.org/1999/02/22-rdf-syntax-ns#"
   xmlns:svg="http://www.w3.org/2000/svg"
   xmlns="http://www.w3.org/2000/svg"
   xmlns:xlink="http://www.w3.org/1999/xlink"
   xmlns:inkscape="http://www.inkscape.org/namespaces/inkscape"
   version="1.0"
   width="16"
   height="16"
   id="svg3249">
  <metadata
     id="metadata23">
    <rdf:RDF>
      <cc:Work
         rdf:about="">
        <dc:format>image/svg+xml</dc:format>
        <dc:type
           rdf:resource="http://purl.org/dc/dcmitype/StillImage" />
      </cc:Work>
    </rdf:RDF>
  </metadata>
  <defs
     id="defs3251">
    <linearGradient
       id="linearGradient2264">
      <stop
         id="stop2266"
         style="stop-color:#d7e866;stop-opacity:1"
         offset="0" />
      <stop
         id="stop2268"
         style="stop-color:#8cab2a;stop-opacity:1"
         offset="1" />
    </linearGradient>
    <linearGradient
       x1="16.571032"
       y1="14.001868"
       x2="44.094543"
       y2="14.001868"
       id="linearGradient2464"
       xlink:href="#linearGradient2264"
       gradientUnits="userSpaceOnUse"
       gradientTransform="matrix(0,0.319447,-0.313352,0,15.486281,1.9141298)" />
    <linearGradient
       id="linearGradient4222">
      <stop
         id="stop4224"
         style="stop-color:#ffffff;stop-opacity:1"
         offset="0" />
      <stop
         id="stop4226"
         style="stop-color:#ffffff;stop-opacity:0"
         offset="1" />
    </linearGradient>
    <linearGradient
       x1="36.991932"
       y1="20.441076"
       x2="-7.2009978"
       y2="20.441076"
       id="linearGradient2460"
       xlink:href="#linearGradient4222"
       gradientUnits="userSpaceOnUse"
       gradientTransform="matrix(0,-0.3704967,-0.3617496,0,17.508315,18.332054)" />
    <linearGradient
       id="linearGradient5113-1">
      <stop
         id="stop5115-1"
         style="stop-color:#ffffff;stop-opacity:1"
         offset="0" />
      <stop
         id="stop5117-7"
         style="stop-color:#ffffff;stop-opacity:0"
         offset="1" />
    </linearGradient>
    <linearGradient
       x1="30.24197"
       y1="-6.9335275"
       x2="30.546293"
       y2="-3.8255928"
       id="linearGradient2456"
       xlink:href="#linearGradient5113-1"
       gradientUnits="userSpaceOnUse"
       gradientTransform="matrix(0.6129597,0,0,0.4969311,-11.965124,4.7071486)" />
  </defs>
  <g
     id="layer1">
    <path
       d="m 14.176046,9.4999998 -6.1915613,-7.000853 -6.1605311,7.000853 2.676046,0 0,6.0008532 7.0000004,0 0,-6.0008532 2.676046,0 z"
       inkscape:connector-curvature="0"
       id="path3288"
       style="fill:url(#linearGradient2464);fill-opacity:1;fill-rule:nonzero;stroke:#699536;stroke-width:0.99829447;stroke-linecap:round;stroke-linejoin:round;stroke-miterlimit:4;stroke-opacity:1;stroke-dasharray:none;stroke-dashoffset:0;marker:none;visibility:visible;display:inline;overflow:visible" />
    <rect
       width="12.943659"
       height="1.9877317"
       x="1.5"
       y="0.5122683"
       id="rect2488"
       style="fill:#c8dc5a;fill-opacity:1;fill-rule:nonzero;stroke:#699536;stroke-width:1;stroke-linecap:butt;stroke-linejoin:round;stroke-miterlimit:4;stroke-opacity:1;stroke-dasharray:none;stroke-dashoffset:0;marker:none;visibility:visible;display:inline;overflow:visible;enable-background:accumulate" />
    <path
       d="M 11.926403,8.4999998 8,3.9548848 l -4.0369384,4.545115 1.536938,0 0,6.0000002 5.0000004,0 0,-6.0000002 1.426403,0 z"
       inkscape:connector-curvature="0"
       id="path3290"
       style="opacity:0.35400008;fill:none;stroke:url(#linearGradient2460);stroke-width:0.99829447;stroke-linecap:butt;stroke-linejoin:miter;stroke-miterlimit:4;stroke-opacity:1;stroke-dasharray:none;stroke-dashoffset:0;marker:none;visibility:visible;display:inline;overflow:visible" />
    <path
       d="m 2.4709531,1.4770912 11.0017499,0"
       inkscape:connector-curvature="0"
       id="path2490"
       style="opacity:0.35400008;fill:none;stroke:url(#linearGradient2456);stroke-width:1;stroke-linecap:square;stroke-linejoin:miter;stroke-miterlimit:4;stroke-opacity:1;stroke-dasharray:none;stroke-dashoffset:0;marker:none;visibility:visible;display:inline;overflow:visible" />
  </g>
</svg>

<?xml version="1.0" encoding="UTF-8" standalone="no"?>
<!-- Created with Inkscape (http://www.inkscape.org/) -->
<svg
   xmlns:svg="http://www.w3.org/2000/svg"
   xmlns="http://www.w3.org/2000/svg"
   xmlns:xlink="http://www.w3.org/1999/xlink"
   version="1.0"
   width="16"
   height="16"
   id="svg3249">
  <defs
     id="defs3251">
    <linearGradient
       id="linearGradient2264">
      <stop
         id="stop2266"
         style="stop-color:#d7e866;stop-opacity:1"
         offset="0" />
      <stop
         id="stop2268"
         style="stop-color:#8cab2a;stop-opacity:1"
         offset="1" />
    </linearGradient>
    <linearGradient
       x1="16.571032"
       y1="14.001868"
       x2="44.094543"
       y2="14.001868"
       id="linearGradient2464"
       xlink:href="#linearGradient2264"
       gradientUnits="userSpaceOnUse"
       gradientTransform="matrix(0,0.319447,-0.313352,0,15.486281,1.9141298)" />
    <linearGradient
       id="linearGradient4222">
      <stop
         id="stop4224"
         style="stop-color:#ffffff;stop-opacity:1"
         offset="0" />
      <stop
         id="stop4226"
         style="stop-color:#ffffff;stop-opacity:0"
         offset="1" />
    </linearGradient>
    <linearGradient
       x1="36.991932"
       y1="20.441076"
       x2="-7.2009978"
       y2="20.441076"
       id="linearGradient2460"
       xlink:href="#linearGradient4222"
       gradientUnits="userSpaceOnUse"
       gradientTransform="matrix(0,-0.3704967,-0.3617496,0,17.508315,18.332054)" />
    <linearGradient
       id="linearGradient5113-1">
      <stop
         id="stop5115-1"
         style="stop-color:#ffffff;stop-opacity:1"
         offset="0" />
      <stop
         id="stop5117-7"
         style="stop-color:#ffffff;stop-opacity:0"
         offset="1" />
    </linearGradient>
    <linearGradient
       x1="30.24197"
       y1="-6.9335275"
       x2="30.546293"
       y2="-3.8255928"
       id="linearGradient2456"
       xlink:href="#linearGradient5113-1"
       gradientUnits="userSpaceOnUse"
       gradientTransform="matrix(0.6129597,0,0,0.4969311,-11.965124,4.7071486)" />
  </defs>
  <g
     id="layer1">
    <path
       d="M 14.176046,9.4999998 L 7.9844847,2.4991468 L 1.8239536,9.4999998 L 4.4999996,9.4999998 L 4.4999996,15.500853 L 11.5,15.500853 L 11.5,9.4999998 L 14.176046,9.4999998 z"
       id="path3288"
       style="fill:url(#linearGradient2464);fill-opacity:1;fill-rule:nonzero;stroke:#699536;stroke-width:0.99829447;stroke-linecap:round;stroke-linejoin:round;marker:none;stroke-miterlimit:4;stroke-dasharray:none;stroke-dashoffset:0;stroke-opacity:1;visibility:visible;display:inline;overflow:visible" />
    <rect
       width="12.943659"
       height="1.9877317"
       x="1.5"
       y="0.5122683"
       id="rect2488"
       style="opacity:1;fill:#c8dc5a;fill-opacity:1;fill-rule:nonzero;stroke:#699536;stroke-width:1;stroke-linecap:butt;stroke-linejoin:round;marker:none;marker-start:none;marker-mid:none;marker-end:none;stroke-miterlimit:4;stroke-dasharray:none;stroke-dashoffset:0;stroke-opacity:1;visibility:visible;display:inline;overflow:visible;enable-background:accumulate" />
    <path
       d="M 11.926403,8.4999998 L 8,3.9548848 L 3.9630616,8.4999998 L 5.4999996,8.4999998 L 5.4999996,14.5 L 10.5,14.5 L 10.5,8.4999998 L 11.926403,8.4999998 z"
       id="path3290"
       style="opacity:0.35400008;fill:none;stroke:url(#linearGradient2460);stroke-width:0.99829447;stroke-linecap:butt;stroke-linejoin:miter;marker:none;stroke-miterlimit:4;stroke-dasharray:none;stroke-dashoffset:0;stroke-opacity:1;visibility:visible;display:inline;overflow:visible" />
    <path
       d="M 2.4709531,1.4770912 L 13.472703,1.4770912"
       id="path2490"
       style="opacity:0.35400008;fill:none;stroke:url(#linearGradient2456);stroke-width:1;stroke-linecap:square;stroke-linejoin:miter;marker:none;stroke-miterlimit:4;stroke-dasharray:none;stroke-dashoffset:0;stroke-opacity:1;visibility:visible;display:inline;overflow:visible" />
  </g>
</svg>
